!!!!SEGMENT: pl-cz--d-ii-31--002_elsner-jozef--msza-b-op-80-gloria.krn
!!!cenid: 18xx:187
!!!COM: Elsner, Józef
!!!COM-rismID: pe30000957
!!!CDT: 1769/06/01-1854/04/18
!!!CNT: Polish
!!!OPR: Msza B op. 80
!!!OTL: Gloria
!!!OMV: 002
!!!PDT:
!!!AGN: Sacred; Mass
!!!SMS-siglum: PL-CZ
!!!SMS-shelfmark: D II-31
!!!SMS-shelfwork: 001-002 M
!!!NIFC-rismSourceID:
!!!NIFC-islandoraID:
!!!URL-pdf-islandora:
!!!URL-scan:
!!!ONB-nifc: UWAGA: części Mszy: Kyrie, Gloria, Graduale Duetto, Credo, Offertorium, Sanctus, Benedictus, Agnus Dei
!!!AIN: 1 bass 1 organ 2 soprn 1 tenor
!!!key:
**kern	**kern	**kern	**text	**dynam	**kern	**text	**dynam	**kern	**text	**dynam	**kern	**text	**dynam
*part5	*part5	*part4	*part4	*part4	*part3	*part3	*part3	*part2	*part2	*part2	*part1	*part1	*part1
*staff6	*staff5	*staff4	*staff4	*	*staff3	*staff3	*	*staff2	*staff2	*	*staff1	*staff1	*
*Iorgan	*Iempty	*Ibass	*	*	*Itenor	*	*	*Isoprn	*	*	*Isoprn	*	*
*I"Organo.	*	*I"Basso.	*	*	*I"Tenore.	*	*	*I"2o Soprano	*	*	*I"1o Soprano	*	*
*I'Org.	*	*I'B.	*	*	*I'T.	*	*	*I'S.	*	*	*I'S.	*	*
*clefF4	*clefG2	*clefF4	*	*	*clefC4	*	*	*clefG2	*	*	*clefG2	*	*
*k[b-e-]	*k[b-e-]	*k[b-e-]	*	*	*k[b-e-]	*	*	*k[b-e-]	*	*	*k[b-e-]	*	*
*B-:	*B-:	*B-:	*	*	*B-:	*	*	*B-:	*	*	*B-:	*	*
*M2/2	*M2/2	*M2/2	*	*	*M2/2	*	*	*M2/2	*	*	*M2/2	*	*
*met(c|)	*met(c|)	*met(c|)	*	*	*met(c|)	*	*	*met(c|)	*	*	*met(c|)	*	*
=1	=1	=1	=1	=1	=1	=1	=1	=1	=1	=1	=1	=1	=1
!	!LO:TX:a:Bi:t=All-o moderato.	!	!	!LO:DY:b:rj	!	!	!LO:DY:b:rj	!	!	!LO:DY:b:rj	!LO:TX:a:Bi:t=All-o moderato	!	!LO:DY:b:rj
2.BB-\ 2.B-	8d/L 8b-	2.B-\	To-	ff	2.d\	To-	ff	2.f/	To-	ff	2.b-\	To-	ff
.	8f/	.	.	.	.	.	.	.	.	.	.	.	.
.	(8d/	.	.	.	.	.	.	.	.	.	.	.	.
.	8f/J	.	.	.	.	.	.	.	.	.	.	.	.
.	8d/L 8b-	.	.	.	.	.	.	.	.	.	.	.	.
.	8f/	.	.	.	.	.	.	.	.	.	.	.	.
4FF\ 4F	8a/ 8cc	4F\	-bie	.	4A\	-bie	.	4f/	-bie	.	4cc\	-bie	.
.	8f/J)	.	.	.	.	.	.	.	.	.	.	.	.
=2	=2	=2	=2	=2	=2	=2	=2	=2	=2	=2	=2	=2	=2
2.BBB-/ 2.BB-	8f/L 8dd	2.BB-/	cześć	.	2.B-\	cześć	.	2.f/	cześć	.	2.dd\	cześć	.
.	8b-/	.	.	.	.	.	.	.	.	.	.	.	.
.	8f/	.	.	.	.	.	.	.	.	.	.	.	.
.	8b-/J	.	.	.	.	.	.	.	.	.	.	.	.
.	8f/L 8dd	.	.	.	.	.	.	.	.	.	.	.	.
.	8b-/	.	.	.	.	.	.	.	.	.	.	.	.
4r	8ff/	4r	.	.	4r	.	.	4r	.	.	4r	.	.
.	8dd/J	.	.	.	.	.	.	.	.	.	.	.	.
=3	=3	=3	=3	=3	=3	=3	=3	=3	=3	=3	=3	=3	=3
2EE-/ 2E-	8g/L 8ee-	(2E-\	To-	.	2.B-\	To-	.	2.g/	To-	.	2.ee-\	To-	.
.	8b-/	.	.	.	.	.	.	.	.	.	.	.	.
.	8g/	.	.	.	.	.	.	.	.	.	.	.	.
.	8b-/J	.	.	.	.	.	.	.	.	.	.	.	.
4GG/ 4G	8g\L 8ee-	4G\)	.	.	.	.	.	.	.	.	.	.	.
.	8b-\	.	.	.	.	.	.	.	.	.	.	.	.
4EE-/ 4E-	8ee-\ 8gg	4E-\	-bie	.	4B-\	-bie	.	4g/	-bie	.	4ee-\	-bie	.
.	8b-\J	.	.	.	.	.	.	.	.	.	.	.	.
=4	=4	=4	=4	=4	=4	=4	=4	=4	=4	=4	=4	=4	=4
!LO:TX:a:t=P:problem=kropka od półnuty w oddaleniu	!	!	!	!	!	!	!	!	!	!	!	!	!
2.BB-\ 2.B-	8dd\L 8ff	2.B-\	cześć	.	2.B-\	cześć	.	2.f/	cześć	.	2.dd\	cześć	.
.	8b-\	.	.	.	.	.	.	.	.	.	.	.	.
.	8dd\	.	.	.	.	.	.	.	.	.	.	.	.
.	8b-\J	.	.	.	.	.	.	.	.	.	.	.	.
.	8dd\L 8ff	.	.	.	.	.	.	.	.	.	.	.	.
.	8b-\	.	.	.	.	.	.	.	.	.	.	.	.
4r	8dd\	4r	.	.	4r	.	.	4r	.	.	4r	.	.
.	8b-\J	.	.	.	.	.	.	.	.	.	.	.	.
=5	=5	=5	=5	=5	=5	=5	=5	=5	=5	=5	=5	=5	=5
4GG\ 4G	4e-\ 4b- 4ee-	4G\	To-	.	4B-\	To-	.	4g/	To-	.	4ee-\	To-	.
4FF\ 4F	4f\ 4b- 4dd	4F\	-bie	.	4B-\	-bie	.	4b-/	-bie	.	4dd\	-bie	.
4EE-\ 4E-	4f\ 4a 4cc	4E-\	wie-	.	4A\	wie-	.	4f/	wie-	.	4cc\	wie-	.
4DD/ 4D	4f/ 4b-	4D\	-czna	.	4B-\	-czna	.	4f/	-czna	.	4b-\	-czna	.
=6	=6	=6	=6	=6	=6	=6	=6	=6	=6	=6	=6	=6	=6
4CC/ 4C	4e-/ 4f 4a	4C/	chwa-	.	4e-\	chwa-	.	4f/	chwa-	.	4a/	chwa-	.
4BBB-/ 4BB-	4d/ 4f 4b-	4BB-/	-ła	.	4d\	-ła	.	4f/	-ła	.	4b-/	-ła	.
4AAA/ 4AA	4c/ 4f 4cc	4AA/	Oj-	.	4c\	Oj-	.	4f/	Oj-	.	4cc\	Oj-	.
4BBB-/ 4BB-	4f/ 4b- 4dd	4BB-/	-cze	.	4B-\	-cze	.	4f/	-cze	.	4dd\	-cze	.
=7	=7	=7	=7	=7	=7	=7	=7	=7	=7	=7	=7	=7	=7
2.FF/ 2.F	8a\L 8cc	2F\	Bo-	.	(>4.A\	Bo-	.	2f/	Bo-	.	(4.cc\	Bo-	.
.	8f\	.	.	.	.	.	.	.	.	.	.	.	.
.	8a\	.	.	.	.	.	.	.	.	.	.	.	.
.	8cc\J	.	.	.	8c\)	.	.	.	.	.	8a/)	.	.
.	8a\L 8cc 8ff	4F\	-że	.	4A\	-że	.	4f/	-że	.	4f/	-że	.
.	8f\	.	.	.	.	.	.	.	.	.	.	.	.
4r	8a\	4F\	boś	.	4A\	boś	.	4f/	boś	.	4cc\	boś	.
.	8cc\J	.	.	.	.	.	.	.	.	.	.	.	.
=8	=8	=8	=8	=8	=8	=8	=8	=8	=8	=8	=8	=8	=8
!	!	!LO:N:vis=2	!	!	!	!	!	!	!	!	!	!	!
2.BB-/ 2.B-	8d/L 8b-	2.B-\	stwo-	.	2.B-\	stwo-	.	2.d/	stwo-	.	2.b-\	stwo-	.
.	8f/	.	.	.	.	.	.	.	.	.	.	.	.
.	8d/	.	.	.	.	.	.	.	.	.	.	.	.
.	8f/J	.	.	.	.	.	.	.	.	.	.	.	.
.	8d/L 8b-	.	.	.	.	.	.	.	.	.	.	.	.
.	8f/	.	.	.	.	.	.	.	.	.	.	.	.
4FF/ 4F	8a/ 8cc	4F\	-rzył	.	4A/	-rzył	.	4f/	-rzył	.	4cc\	-rzył	.
.	8f/J	.	.	.	.	.	.	.	.	.	.	.	.
=9	=9	=9	=9	=9	=9	=9	=9	=9	=9	=9	=9	=9	=9
!!LO:LB:g=original
2.BB-\ 2.B-	8d/L 8b-	2.B-\	wszy-	.	2.B-\	wszy-	.	2.d/	wszy-	.	2.b-\	wszy-	.
.	8f/	.	.	.	.	.	.	.	.	.	.	.	.
.	8d/	.	.	.	.	.	.	.	.	.	.	.	.
.	8f/J	.	.	.	.	.	.	.	.	.	.	.	.
.	8d/L 8b-	.	.	.	.	.	.	.	.	.	.	.	.
.	8f/	.	.	.	.	.	.	.	.	.	.	.	.
4FF\ 4F	8a/ 8cc	4F\	-stkie	.	4A\	-stkie	.	4f/	-stkie	.	4cc\	-stkie	.
.	8f/J	.	.	.	.	.	.	.	.	.	.	.	.
=10	=10	=10	=10	=10	=10	=10	=10	=10	=10	=10	=10	=10	=10
2.BBB-/ 2.BB-	8b-\L 8dd	2BB-/	rze-	.	2B-\	rze-	.	2f/	rze-	.	2dd\	rze-	.
.	8f\	.	.	.	.	.	.	.	.	.	.	.	.
.	8b-\ 8dd	.	.	.	.	.	.	.	.	.	.	.	.
.	8f\J	.	.	.	.	.	.	.	.	.	.	.	.
.	8dd\L 8ff	4BB-/	-czy	.	4B-\	-czy	.	4f/	-czy	.	4dd\	-czy	.
.	8b-\	.	.	.	.	.	.	.	.	.	.	.	.
4AA-X\ 4A-X	8dd\ 8ff	4A-X\	i	.	4B-\	i	.	4f/	i	.	4dd\	i	.
.	8b-\J	.	.	.	.	.	.	.	.	.	.	.	.
=11	=11	=11	=11	=11	=11	=11	=11	=11	=11	=11	=11	=11	=11
2G\	8b-\L 8ee-	2G\	rzą-	.	2B-\	rzą-	.	2e-/	rzą-	.	2ee-\	rzą-	.
.	8e-\	.	.	.	.	.	.	.	.	.	.	.	.
.	8b-\ 8ee-	.	.	.	.	.	.	.	.	.	.	.	.
.	8e-\J	.	.	.	.	.	.	.	.	.	.	.	.
4E-\	8g\L 8b- 8ee-	4E-\	-dzisz	.	4B-\	-dzisz	.	4g/	-dzisz	.	4ee-\	-dzisz	.
.	8e-\	.	.	.	.	.	.	.	.	.	.	.	.
4C\	8g\ 8b- 8ee-	4C\	wszy-	.	4c\	wszy-	.	4g/	wszy-	.	4ee-\	wszy-	.
.	8e-\J	.	.	.	.	.	.	.	.	.	.	.	.
=12	=12	=12	=12	=12	=12	=12	=12	=12	=12	=12	=12	=12	=12
2FF/ 2F	8b-\L 8dd	1F	-stkie-	.	(2d\	-stkie-	.	(2b-\	-stkie-	.	(2dd\	-stkie-	.
.	8f\	.	.	.	.	.	.	.	.	.	.	.	.
.	8b-\ 8dd	.	.	.	.	.	.	.	.	.	.	.	.
.	8f\J	.	.	.	.	.	.	.	.	.	.	.	.
2FF/ 2F	8a\L 8cc	.	.	.	2e-\	.	.	2a/	.	.	2cc\	.	.
.	8f\	.	.	.	.	.	.	.	.	.	.	.	.
.	8a\ 8cc	.	.	.	.	.	.	.	.	.	.	.	.
.	8e-\J 8f	.	.	.	.	.	.	.	.	.	.	.	.
=13	=13	=13	=13	=13	=13	=13	=13	=13	=13	=13	=13	=13	=13
2.BBB-/ 2.BB-	8d/L 8b-	2BB-/	-mi	.	2d\)	-mi	.	2b-\)	-mi	.	2b-\)	-mi	.
.	8f/	.	.	.	.	.	.	.	.	.	.	.	.
.	8d/	.	.	.	.	.	.	.	.	.	.	.	.
.	8f/J	.	.	.	.	.	.	.	.	.	.	.	.
.	8d/L 8b-	2r	.	.	2r	.	.	2r	.	.	2r	.	.
.	8dd/	.	.	.	.	.	.	.	.	.	.	.	.
4r	8ff/	.	.	.	.	.	.	.	.	.	.	.	.
.	8dd/J	.	.	.	.	.	.	.	.	.	.	.	.
=14	=14	=14	=14	=14	=14	=14	=14	=14	=14	=14	=14	=14	=14
2FF/ 2F	8a\L 8cc	2F\	od-	.	2A\	od-	.	2f/	od-	.	2cc\	od-	.
.	8f\	.	.	.	.	.	.	.	.	.	.	.	.
.	8a\ 8cc	.	.	.	.	.	.	.	.	.	.	.	.
.	8f\J	.	.	.	.	.	.	.	.	.	.	.	.
2FF/ 2F	8b-\L 8dd	4F\	-wróć	.	4B-\	-wróć	.	4f/	-wróć	.	4dd\	-wróć	.
.	8f\	.	.	.	.	.	.	.	.	.	.	.	.
.	8a\ 8cc 8ee-	4F\	od	.	4c\	od	.	4f/	od	.	4ee-\	od	.
.	8f\J	.	.	.	.	.	.	.	.	.	.	.	.
=15	=15	=15	=15	=15	=15	=15	=15	=15	=15	=15	=15	=15	=15
2.FF/ 2.F	8f/L 8dd	2F\	nas	.	2B-\	nas	.	2f/	nas	.	2dd\	nas	.
.	8b-/	.	.	.	.	.	.	.	.	.	.	.	.
.	8f/	.	.	.	.	.	.	.	.	.	.	.	.
.	8b-/J	.	.	.	.	.	.	.	.	.	.	.	.
.	8b-/L 8dd	4r	.	.	4r	.	.	4r	.	.	4r	.	.
.	8f/	.	.	.	.	.	.	.	.	.	.	.	.
4EE-/ 4E-	8a/ 8cc	4E-\	co	.	4A\	co	.	4f/	co	.	4cc\	co	.
.	8f/J	.	.	.	.	.	.	.	.	.	.	.	.
=16	=16	=16	=16	=16	=16	=16	=16	=16	=16	=16	=16	=16	=16
4DD/ 4D	4f/ 4b-	4D/	po-	.	4B-\	po-	.	4f/	po-	.	4b-\	po-	.
4AAA/ 4AA	4e-/ 4f 4cc	4AA/	-koy	.	4e-\	-koy	.	4f/	-koy	.	4cc\	-koy	.
4BBB-/ 4BB-	4d/ 4f 4b- 4dd	4BB-/	du-	.	4d\	du-	.	4f/	du-	.	4dd\	du-	.
4GG/ 4G	4e-/ 4b- 4ee-	4G\	-szy	.	4B-\	-szy	.	4b-/	-szy	.	4ee-\	-szy	.
=17	=17	=17	=17	=17	=17	=17	=17	=17	=17	=17	=17	=17	=17
2DD/ 2D	8f\L 8b- 8ff	2D\	mie-	.	2B-\	mie-	.	2b-\	mie-	.	2ff\	mie-	.
.	8dd\	.	.	.	.	.	.	.	.	.	.	.	.
.	8b-\	.	.	.	.	.	.	.	.	.	.	.	.
.	8ff\J	.	.	.	.	.	.	.	.	.	.	.	.
2EE-/ 2E-	8g\L 8ee- 8gg	2E-\	-szać	.	2B-\	-szać	.	2b-\	-szać	.	2gg\	-szać	.
.	8b-\	.	.	.	.	.	.	.	.	.	.	.	.
.	8ee-\	.	.	.	.	.	.	.	.	.	.	.	.
.	8gg\J	.	.	.	.	.	.	.	.	.	.	.	.
=18	=18	=18	=18	=18	=18	=18	=18	=18	=18	=18	=18	=18	=18
!!LO:PB:g=original
2.DD/ 2.D	8f\L 8b- 8ff	2D\	mo-	.	2B-\	mo-	.	2b-/	mo-	.	(4.ff\	mo-	.
.	8dd\	.	.	.	.	.	.	.	.	.	.	.	.
.	8b-\	.	.	.	.	.	.	.	.	.	.	.	.
.	8dd\J	.	.	.	.	.	.	.	.	.	8dd\)	.	.
.	8d/L 8b-	4D\	-że	.	4B-\	-że	.	4f/	-że	.	4b-\	-że	.
.	8f/	.	.	.	.	.	.	.	.	.	.	.	.
4FF/ 4F	8a/ 8cc	4F\	i	.	4A\	i	.	4f/	i	.	4cc\	i	.
.	8f/J	.	.	.	.	.	.	.	.	.	.	.	.
=19	=19	=19	=19	=19	=19	=19	=19	=19	=19	=19	=19	=19	=19
!	!	!LO:N:vis=2	!	!	!	!	!	!	!	!	!	!	!
2.BB-\ 2.B-	8d/L 8b-	2.B-\	Spraw	.	2.B-\	Spraw	.	2.d/	Spraw	.	2.b-\	Spraw	.
.	8f/	.	.	.	.	.	.	.	.	.	.	.	.
.	8d/	.	.	.	.	.	.	.	.	.	.	.	.
.	8f/J	.	.	.	.	.	.	.	.	.	.	.	.
.	8d/L 8b-	.	.	.	.	.	.	.	.	.	.	.	.
.	8f/	.	.	.	.	.	.	.	.	.	.	.	.
4FF/ 4F	8a/ 8cc	4F\	i	.	4A/	i	.	4f/	i	.	4cc\	i	.
.	8f/J	.	.	.	.	.	.	.	.	.	.	.	.
=20	=20	=20	=20	=20	=20	=20	=20	=20	=20	=20	=20	=20	=20
2.BB-\ 2.B-	8d/L 8b-	2.B-\	spraw	.	2.B-\	spraw	.	2.d/	spraw	.	2.b-\	spraw	.
.	8f/	.	.	.	.	.	.	.	.	.	.	.	.
.	8d/	.	.	.	.	.	.	.	.	.	.	.	.
.	8f/J	.	.	.	.	.	.	.	.	.	.	.	.
.	8d/L 8b-	.	.	.	.	.	.	.	.	.	.	.	.
.	8f/	.	.	.	.	.	.	.	.	.	.	.	.
4FF/ 4F	8a/ 8cc	4F\	niech	.	4A\	niech	.	4f/	niech	.	4cc\	niech	.
.	8f/J	.	.	.	.	.	.	.	.	.	.	.	.
=21	=21	=21	=21	=21	=21	=21	=21	=21	=21	=21	=21	=21	=21
2.BBB-/ 2.BB-	8b-\L 8dd	2BB-/	po-	.	2B-\	po-	.	2f/	po-	.	2dd\	po-	.
.	8f\	.	.	.	.	.	.	.	.	.	.	.	.
.	8b-\ 8dd	.	.	.	.	.	.	.	.	.	.	.	.
.	8f\J	.	.	.	.	.	.	.	.	.	.	.	.
.	8dd\L 8ff	4BB-/	-koy	.	4B-\	-koy	.	4f/	-koy	.	4dd\	-koy	.
.	8b-\	.	.	.	.	.	.	.	.	.	.	.	.
4AA-X\ 4A-X	8dd\ 8ff	4A-X\	za	.	4B-\	za	.	4f/	za	.	4dd\	za	.
.	8b-\J	.	.	.	.	.	.	.	.	.	.	.	.
=22	=22	=22	=22	=22	=22	=22	=22	=22	=22	=22	=22	=22	=22
2GG\ 2G	8b-\L 8ee-	2G\	kwi-	.	2B-\	kwi-	.	2e-/	kwi-	.	2ee-\	kwi-	.
.	8e-\	.	.	.	.	.	.	.	.	.	.	.	.
.	8b-\ 8ee-	.	.	.	.	.	.	.	.	.	.	.	.
.	8e-\J	.	.	.	.	.	.	.	.	.	.	.	.
4EE-/ 4E-	8g\L 8b- 8ee-	4E-\	-tnie	.	4B-\	-tnie	.	4g/	-tnie	.	4ee-\	-tnie	.
.	8e-\	.	.	.	.	.	.	.	.	.	.	.	.
4CC/ 4C	8g\ 8b- 8ee-	4C/	na	.	4c\	na	.	4g/	na	.	4ee-\	na	.
.	8e-\J	.	.	.	.	.	.	.	.	.	.	.	.
=23	=23	=23	=23	=23	=23	=23	=23	=23	=23	=23	=23	=23	=23
2FF/ 2F	8b-\L 8dd	1F	zie-	.	(2d\	zie-	.	(2b-/	zie-	.	(2dd\	zie-	.
.	8f\	.	.	.	.	.	.	.	.	.	.	.	.
.	8b-\ 8dd	.	.	.	.	.	.	.	.	.	.	.	.
.	8f\J	.	.	.	.	.	.	.	.	.	.	.	.
2FF/ 2F	8a\L 8cc	.	.	.	2e-\	.	.	2a/	.	.	2cc\	.	.
.	8f\	.	.	.	.	.	.	.	.	.	.	.	.
.	8a\ 8cc	.	.	.	.	.	.	.	.	.	.	.	.
.	8e-\J 8f	.	.	.	.	.	.	.	.	.	.	.	.
=24	=24	=24	=24	=24	=24	=24	=24	=24	=24	=24	=24	=24	=24
2BBB-/ [2BB-	8d/L 8b-	2BB-/	-mi	.	2d\)	-mi	.	2b-\)	-mi	.	2b-\)	-mi	.
.	8f/	.	.	.	.	.	.	.	.	.	.	.	.
.	8d/	.	.	.	.	.	.	.	.	.	.	.	.
.	8f/J	.	.	.	.	.	.	.	.	.	.	.	.
4BBB-/ 4BB-]	4d/ 4b-	4r	.	.	4r	.	.	4r	.	.	4r	.	.
.	.	.	.	p	.	.	p	.	.	p	.	.	p
!	!	!LO:TX:a:Bi:t=dol.	!	!	!LO:TX:a:Bi:t=dol.	!	!	!LO:TX:a:Bi:t=dol.	!	!	!LO:TX:a:Bi:t=dol.	!	!
4r	4r	4F\	Ty	.	4B-\	Ty	.	4f/	Ty	.	4dd\	Ty	.
=25	=25	=25	=25	=25	=25	=25	=25	=25	=25	=25	=25	=25	=25
1r	1r	4F\	Bo-	.	4A\	Bo-	.	4f/	Bo-	.	4cc\	Bo-	.
.	.	4F\	-że	.	4G#X\	-że	.	4f/	-że	.	4bn\	-że	.
.	.	4F\	Sy-	.	4A\	Sy-	.	4f/	Sy-	.	4cc\	Sy-	.
.	.	4F\	-nu	.	4B-\	-nu	.	4f/	-nu	.	4dd\	-nu	.
=26	=26	=26	=26	=26	=26	=26	=26	=26	=26	=26	=26	=26	=26
2r	2r	2F\	Bo-	.	(4.A\	Bo-	.	2f/	Bo-	.	(4.cc\	Bo-	.
.	.	.	.	.	8Gn/)	.	.	.	.	.	8b-X\)	.	.
4r	4r	4F\	-ga	.	4F/	-ga	.	4f/	-ga	.	4a/	-ga	.
!	!LO:TX:b:Bi:t=dol:	!	!	!	!	!	!	!	!	!	!	!	!
4FF/ 4F	4f\ 4b- 4dd	4r	.	.	4r	.	.	4ryy	.	.	4r	.	.
=27	=27	=27	=27	=27	=27	=27	=27	=27	=27	=27	=27	=27	=27
2FF/ 2F	(4.f/ 4.a 4.cc	2r	.	.	2r	.	.	2r	.	.	2r	.	.
.	8g/) 8b-	.	.	.	.	.	.	.	.	.	.	.	.
4FF/ 4F	4f/ 4a	4r	.	.	4r	.	.	4r	.	.	4r	.	.
4FF/ 4F	4a/ 4cc	4F\	coś	.	4A\	coś	.	4f/	coś	.	4cc\	coś	.
=28	=28	=28	=28	=28	=28	=28	=28	=28	=28	=28	=28	=28	=28
!!LO:LB:g=original
1FF 1F	2b-\ 2dd	2F\	no-	.	2B-\	no-	.	(4f/	no-	.	2dd\	no-	.
.	.	.	.	.	.	.	.	8b-/L	.	.	.	.	.
.	.	.	.	.	.	.	.	8a/J)	.	.	.	.	.
*	*^	*	*	*	*	*	*	*	*	*	*	*	*
.	4een/	2g\ 2b-	4F\	-wem	.	4B-\	-wem	.	4g/	-wem	.	4een\	-wem	.
.	8dd/L	.	4F\	przy-	.	4B-\	przy-	.	4g/	przy-	.	8dd\L	przy-	.
.	8ee/J	.	.	.	.	.	.	.	.	.	.	8ee\J	.	.
*	*v	*v	*	*	*	*	*	*	*	*	*	*	*	*
=29	=29	=29	=29	=29	=29	=29	=29	=29	=29	=29	=29	=29	=29
2FF\ [2F	2a\ 2cc [2ff	2F\	-mie-	.	2A\	-mie-	.	2f/	-mie-	.	2ff\	-mie-	.
8FF/ 8F]	8a\L 8cc 8ff]	4F\	-rzem	.	4c\	-rzem	.	4a/	-rzem	.	4cc\	-rzem	.
(8C\L	(8cc\	.	.	.	.	.	.	.	.	.	.	.	.
8F\	8ff\)	4r	.	.	4r	.	.	4r	.	.	4r	.	.
8A\J)	8aa\J	.	.	.	.	.	.	.	.	.	.	.	.
=30	=30	=30	=30	=30	=30	=30	=30	=30	=30	=30	=30	=30	=30
1CC [1C	4b-\ 4een 4gg	4C/	Dzie-	.	4B-\	Dzie-	.	4g/	Dzie-	.	4een\	Dzie-	.
.	4a\ 4ff	4C/	-ci	.	4A\	-ci	.	4a/	-ci	.	4ff\	-ci	.
.	4g\ 4b- 4ee	4C/	z Oj-	.	4B-\	z Oj-	.	4g/	z Oj-	.	4ee\	z Oj-	.
.	8f\L 8a 8ff	8C/	-cem	.	8A\	-cem	.	8f/	-cem	.	8ff\	-cem	.
.	8en\J 8b- 8dd	8C/	i	.	8B-\	i	.	8en/	i	.	8dd\	i	.
=31	=31	=31	=31	=31	=31	=31	=31	=31	=31	=31	=31	=31	=31
1CC 1C_	2f\ 2a 2cc	2C/	zie-	.	2A\	zie-	.	2f/	zie-	.	2cc\	zie-	.
.	4f\ 4b- 4dd	4C/	-mię	.	4B-\	-mię	.	4f/	-mię	.	4dd\	-mię	.
.	4en\ 4g 4b-	4C/	z Nie-	.	4G\	z Nie-	.	4en/	z Nie-	.	4b-\	z Nie-	.
=32	=32	=32	=32	=32	=32	=32	=32	=32	=32	=32	=32	=32	=32
1CC 1C_	2c/ 2f 2a	2C/	-bio-	.	2c\	-bio-	.	2f/	-bio-	.	2a/	-bio-	.
.	4c/ 4g 4b-	4C/	-sy	.	4c\	-sy	.	4g/	-sy	.	4b-/	-sy	.
.	4B-/ 4en 4g	4C/	zje-	.	4B-\	zje-	.	4en/	zje-	.	4g/	zje-	.
=33	=33	=33	=33	=33	=33	=33	=33	=33	=33	=33	=33	=33	=33
1CC 1C]	2.A/ 2.c 2.f	1C	-dno-	.	2.A\	-dno-	.	(>2.f/	-dno-	.	(>2.f/	-dno-	.
*	*^	*	*	*	*	*	*	*	*	*	*	*	*
.	4en/ 4g	8c\L	.	.	.	(8c\L	.	.	4en/)	.	.	4g/)	.	.
.	.	8A\J	.	.	.	8B-\J)	.	.	.	.	.	.	.	.
*	*v	*v	*	*	*	*	*	*	*	*	*	*	*	*
=34	=34	=34	=34	=34	=34	=34	=34	=34	=34	=34	=34	=34	=34
2FF/ 2F	8A/L 8c 8f 8a	2F\	-czył	.	2A\	-czył	.	2f/	-czył	.	2a/	-czył	.
.	8c/	.	.	.	.	.	.	.	.	.	.	.	.
.	8f/	.	.	.	.	.	.	.	.	.	.	.	.
.	8a/J	.	.	.	.	.	.	.	.	.	.	.	.
2r	4f/	4r	.	.	4r	.	.	4r	.	.	4r	.	.
.	4r	4F\	Ty	.	4B-\	Ty	.	4f/	Ty	.	4dd\	Ty	.
=35	=35	=35	=35	=35	=35	=35	=35	=35	=35	=35	=35	=35	=35
1r	1r	4F\	któ-	.	4A\	któ-	.	4f/	któ-	.	4cc\	któ-	.
.	.	4F\	-ryś	.	4G#X/	-ryś	.	4f/	-ryś	.	4bn\	-ryś	.
.	.	4F\	za	.	4A/	za	.	4f/	za	.	4cc\	za	.
.	.	4F\	ród	.	4B-/	ród	.	4f/	ród	.	4dd\	ród	.
=36	=36	=36	=36	=36	=36	=36	=36	=36	=36	=36	=36	=36	=36
!!LO:PB:g=original
2r	2r	2F\	lu-	.	(4.A\	lu-	.	2f/	lu-	.	(4.cc\	lu-	.
.	.	.	.	.	8Gn\)	.	.	.	.	.	8b-X\)	.	.
4r	4r	4F\	-dzki	.	4F/	-dzki	.	4f/	-dzki	.	4a\	-dzki	.
4FF\ 4F	4f\ 4b- 4dd	4r	.	.	4r	.	.	4r	.	.	4r	.	.
=37	=37	=37	=37	=37	=37	=37	=37	=37	=37	=37	=37	=37	=37
2FF/ 2F	(4.f\ 4.a 4.cc	2r	.	.	2r	.	.	2r	.	.	2r	.	.
.	8g\) 8b-	.	.	.	.	.	.	.	.	.	.	.	.
4FF/ 4F	4f\ 4a	4r	.	.	4r	.	.	4r	.	.	4r	.	.
4FF/ 4F	4a\ 4cc	4F\	Krew	.	4A/	Krew	.	4f/	Krew	.	4cc\	Krew	.
=38	=38	=38	=38	=38	=38	=38	=38	=38	=38	=38	=38	=38	=38
1FF [1F	2b-\ 2dd	2F\	Swo-	.	2B-/	Swo-	.	(4f/	Swo-	.	2dd\	Swo-	.
.	.	.	.	.	.	.	.	8b-/L	.	.	.	.	.
.	.	.	.	.	.	.	.	8a/J)	.	.	.	.	.
*	*^	*	*	*	*	*	*	*	*	*	*	*	*
.	4een/	2g\ 2b-	4F\	-ią	.	4B-/	-ią	.	4g/	-ią	.	4een\	-ią	.
.	8dd/L	.	4F\	wy-	.	4B-/	wy-	.	4g/	wy-	.	8dd\L	wy-	.
.	8ee/J	.	.	.	.	.	.	.	.	.	.	8ee\J	.	.
*	*v	*v	*	*	*	*	*	*	*	*	*	*	*	*
=39	=39	=39	=39	=39	=39	=39	=39	=39	=39	=39	=39	=39	=39
2FF/ 2F_	2a\ 2cc [2ff	2F\	-to-	.	2A\	-to-	.	2f/	-to-	.	2ff\	-to-	.
8FF/ 8F]	8a\L 8cc 8ff]	4F\	-czył	.	4c\	-czył	.	4a/	-czył	.	4cc\	-czył	.
(8C\L	(8cc\	.	.	.	.	.	.	.	.	.	.	.	.
8F\	8ff\)	4r	.	.	4r	.	.	4r	.	.	4r	.	.
8A\J)	8aa\J	.	.	.	.	.	.	.	.	.	.	.	.
=40	=40	=40	=40	=40	=40	=40	=40	=40	=40	=40	=40	=40	=40
1CC [1C	4b-\ 4een 4gg	4C/	o-	.	4B-\	o-	.	4g/	o-	.	4een\	o-	.
.	4a/ 4ff	4C/	-kryi	.	4A\	-kryi	.	4a/	-kryi	.	4ff\	-kryi	.
*	*^	*	*	*	*	*	*	*	*	*	*	*	*
.	4een/	2g\ 2b-	2C/	nas	.	2B-\	nas	.	2g/	nas	.	(4ee\	nas	.
.	8dd/L	.	.	.	.	.	.	.	.	.	.	8dd\L)	.	.
.	8ee/J	.	.	.	.	.	.	.	.	.	.	8ee\J	.	.
=41	=41	=41	=41	=41	=41	=41	=41	=41	=41	=41	=41	=41	=41	=41
1CC 1C]	2ff/	2f\ 2a	2C/	two-	.	2A\	two-	.	2a/	two-	.	2ff\	two-	.
.	4een/	2g\ 2b-	4C/	-iey	.	4B-\	-iey	.	4g/	-iey	.	4een\	-iey	.
.	8dd/L	.	4C/	o-	.	4B-\	o-	.	4g/	o-	.	8dd\L	o-	.
.	8ee/J	.	.	.	.	.	.	.	.	.	.	8ee\J	.	.
*	*v	*v	*	*	*	*	*	*	*	*	*	*	*	*
=42	=42	=42	=42	=42	=42	=42	=42	=42	=42	=42	=42	=42	=42
2DD/ 2D	2f\ 2a 2ff	2D/	-pie-	.	2A\	-pie-	.	2f/	-pie-	.	2ff\	-pie-	.
2BBB-/ 2BB-	4f\ 4b- 4dd	4BB-/	-ki	.	4B-\	-ki	.	4f/	-ki	.	4dd\	-ki	.
.	4d\ 4g 4b-	4BB-/	pu-	.	4d\	pu-	.	4g/	pu-	.	4b-\	pu-	.
=43	=43	=43	=43	=43	=43	=43	=43	=43	=43	=43	=43	=43	=43
*	*^	*	*	*	*	*	*	*	*	*	*	*	*
1CC 1C	2c/ 2f 2a	2.c\	1C	-kle-	.	(2.c\	-kle-	.	(2f/	-kle-	.	(2a/	-kle-	.
.	2en/ 2g	.	.	.	.	.	.	.	2en/)	.	.	2g/)	.	.
.	.	4B-\	.	.	.	4B-\)	.	.	.	.	.	.	.	.
*	*v	*v	*	*	*	*	*	*	*	*	*	*	*	*
=44	=44	=44	=44	=44	=44	=44	=44	=44	=44	=44	=44	=44	=44
1FF [1F	8A/L 8f	2F\	-rzem	.	2A\	-rzem	.	2f/	-rzem	.	2f/	-rzem	.
.	8c/	.	.	.	.	.	.	.	.	.	.	.	.
.	8A/	.	.	.	.	.	.	.	.	.	.	.	.
.	8c/J	.	.	.	.	.	.	.	.	.	.	.	.
.	8A/L 8f	4r	.	.	4r	.	.	4r	.	.	4r	.	.
.	8c/	.	.	.	.	.	.	.	.	.	.	.	.
.	8f/ 8a	4F\	i	.	4c\	i	.	4f/	i	.	4a/	i	.
.	8c/J	.	.	.	.	.	.	.	.	.	.	.	.
=45	=45	=45	=45	=45	=45	=45	=45	=45	=45	=45	=45	=45	=45
1FF 1F_	8a/L 8cc	2F\	ty	.	2f\	ty	.	2a/	ty	.	2cc\	ty	.
.	8f/	.	.	.	.	.	.	.	.	.	.	.	.
.	8a/ 8cc	.	.	.	.	.	.	.	.	.	.	.	.
.	8f/J	.	.	.	.	.	.	.	.	.	.	.	.
.	8a/L 8cc	4r	.	.	4r	.	.	4r	.	.	4r	.	.
.	8f/	.	.	.	.	.	.	.	.	.	.	.	.
.	8a/ 8cc	4F\	i	.	4c\	i	.	4a/	i	.	4cc\	i	.
.	8f/J	.	.	.	.	.	.	.	.	.	.	.	.
=46	=46	=46	=46	=46	=46	=46	=46	=46	=46	=46	=46	=46	=46
!	!	!	!	!	!	!	!	!	!	!	!LO:TX:a:t=P:problem=dopisana fermata	!	!
1FF 1F]	8cc\L 8ee-	2.F\	ty	.	2.A\	ty	.	2.cc\	ty	.	2.ee-\	ty	.
.	8a\	.	.	.	.	.	.	.	.	.	.	.	.
.	8cc\ 8ee-	.	.	.	.	.	.	.	.	.	.	.	.
.	8a\J	.	.	.	.	.	.	.	.	.	.	.	.
!	!LO:TX:a:t=P:problem=dopisana fermata	!	!	!	!	!	!	!	!	!	!	!	!
.	8cc\L 8ee-	.	.	.	.	.	.	.	.	.	.	.	.
.	8a\	.	.	.	.	.	.	.	.	.	.	.	.
.	8cc\ 8ee-	4r	.	.	4r	.	.	4r	.	.	4r	.	.
.	8a\J	.	.	.	.	.	.	.	.	.	.	.	.
=47	=47	=47	=47	=47	=47	=47	=47	=47	=47	=47	=47	=47	=47
1BBB- [1BB-	8f\L 8b- 8dd	2BB-/	któ-	.	2B-\	któ-	.	2f/	któ-	.	2dd\	któ-	.
.	8b-\	.	.	.	.	.	.	.	.	.	.	.	.
.	8f\	.	.	.	.	.	.	.	.	.	.	.	.
.	8b-\J	.	.	.	.	.	.	.	.	.	.	.	.
.	8b-\L 8dd	4BB-/	-ry	.	4B-\	-ry	.	4f/	-ry	.	4dd\	-ry	.
.	8f\	.	.	.	.	.	.	.	.	.	.	.	.
*	*	*	*	*	*^	*	*	*	*	*	*	*	*
.	8a\ 8cc 8ee-	4BB-/	stra-	.	4c/	4A\ 4c	stra-	.	4g-X/	stra-	.	4ee-\	stra-	.
.	8g-X\J	.	.	.	.	.	.	.	.	.	.	.	.	.
*	*	*	*	*	*v	*v	*	*	*	*	*	*	*	*
=48	=48	=48	=48	=48	=48	=48	=48	=48	=48	=48	=48	=48	=48
!!LO:LB:g=original
!LO:TX:a:t=P:problem=początek ligatury na górze, a koniec na dole	!	!	!	!	!	!	!	!	!	!	!	!	!
[1BBB- 1BB-]	(8f\L 8b- 8dd	2BB-/	-pio-	.	2B-\	-pio-	.	2f/	-pio-	.	2dd\	-pio-	.
.	8b-\	.	.	.	.	.	.	.	.	.	.	.	.
.	8f\	.	.	.	.	.	.	.	.	.	.	.	.
.	8b-\J	.	.	.	.	.	.	.	.	.	.	.	.
.	8f\L 8b- 8dd	4BB-/	-nych	.	4B-\	-nych	.	4f/	-nych	.	4dd\	-nych	.
.	8f\	.	.	.	.	.	.	.	.	.	.	.	.
*	*	*	*	*	*^	*	*	*	*	*	*	*	*
.	8a\ 8cc 8ee-	4BB-/	ję-	.	4c/	4A\	ję-	.	4g-X/	ję-	.	4ee-\	ję-	.
.	8g-X\J)	.	.	.	.	.	.	.	.	.	.	.	.	.
*	*	*	*	*	*v	*v	*	*	*	*	*	*	*	*
=49	=49	=49	=49	=49	=49	=49	=49	=49	=49	=49	=49	=49	=49
2BBB-/] 2BB-	8f\L 8b- 8dd	2BB-/	-ka-	.	2B-\	-ka-	.	2f/	-ka-	.	2dd\	-ka-	.
.	(8b-\	.	.	.	.	.	.	.	.	.	.	.	.
.	8f\	.	.	.	.	.	.	.	.	.	.	.	.
.	8b-\J	.	.	.	.	.	.	.	.	.	.	.	.
4BB-\ 4B-	8b-\L 8dd	4B-\	-mi	.	4B-\	-mi	.	4b-/	-mi	.	4dd\	-mi	.
.	8f\	.	.	.	.	.	.	.	.	.	.	.	.
4FF\ 4F	8a\) 8cc 8ee-	4F\	do-	.	4c\	do-	.	4a/	do-	.	4ee-\	do-	.
.	8f\J	.	.	.	.	.	.	.	.	.	.	.	.
=50	=50	=50	=50	=50	=50	=50	=50	=50	=50	=50	=50	=50	=50
1FF#X 1F#X	8a/L 8cc 8dd	2F#X\	-tknię-	.	2c\	-tknię-	.	2a/	-tknię-	.	2dd\	-tknię-	.
.	(8d/	.	.	.	.	.	.	.	.	.	.	.	.
.	8a/ 8cc 8dd	.	.	.	.	.	.	.	.	.	.	.	.
.	8d/J	.	.	.	.	.	.	.	.	.	.	.	.
.	8a/L 8cc 8dd	4F#\	-ty	.	4c\	-ty	.	4a/	-ty	.	4dd\	-ty	.
.	8d/	.	.	.	.	.	.	.	.	.	.	.	.
.	8a/ 8cc 8dd	4r	.	.	4r	.	.	4r	.	.	4r	.	.
.	8d/J)	.	.	.	.	.	.	.	.	.	.	.	.
=51	=51	=51	=51	=51	=51	=51	=51	=51	=51	=51	=51	=51	=51
1GG 1G	8b-/L 8dd	2G\	Ra-	.	2B-\	Ra-	.	2b-\	Ra-	.	2dd\	Ra-	.
.	(8d/	.	.	.	.	.	.	.	.	.	.	.	.
.	8b-/ 8dd	.	.	.	.	.	.	.	.	.	.	.	.
.	8d/J	.	.	.	.	.	.	.	.	.	.	.	.
.	8g/L 8b-	2G\	-czysz,	.	2d\	-czysz,	.	2g/	-czysz,	.	2b-\	-czysz,	.
.	8d/	.	.	.	.	.	.	.	.	.	.	.	.
.	8g/ 8b-	.	.	.	.	.	.	.	.	.	.	.	.
.	8d/J)	.	.	.	.	.	.	.	.	.	.	.	.
=52	=52	=52	=52	=52	=52	=52	=52	=52	=52	=52	=52	=52	=52
1CC 1C	8cc\L 8ee-	2C/	Ra-	.	2c\	Ra-	.	2g/	Ra-	.	2ee-\	Ra-	.
.	8g\	.	.	.	.	.	.	.	.	.	.	.	.
.	(8cc\ 8ee-	.	.	.	.	.	.	.	.	.	.	.	.
.	8g\J	.	.	.	.	.	.	.	.	.	.	.	.
.	8g\L 8cc	2C/	-czysz	.	2e-\	-czysz	.	2g/	-czysz	.	2cc\	-czysz	.
.	8e-\	.	.	.	.	.	.	.	.	.	.	.	.
.	8g\ 8cc	.	.	.	.	.	.	.	.	.	.	.	.
.	8e-\J)	.	.	.	.	.	.	.	.	.	.	.	.
=53	=53	=53	=53	=53	=53	=53	=53	=53	=53	=53	=53	=53	=53
1DD 1D	8g/L 8b-	2D/	sro-	.	2d\	sro-	.	2g/	sro-	.	2b-/	sro-	.
.	(8d/	.	.	.	.	.	.	.	.	.	.	.	.
.	8g/ 8b-	.	.	.	.	.	.	.	.	.	.	.	.
.	8d/J	.	.	.	.	.	.	.	.	.	.	.	.
.	8g/L 8b-	4D/	-gą	.	4d\	-gą	.	4g/	-gą	.	4b-/	-gą	.
.	8d/	.	.	.	.	.	.	.	.	.	.	.	.
.	8g/ 8b-	4D/	su-	.	4d\	su-	.	4g/	su-	.	4b-/	su-	.
.	8d/J)	.	.	.	.	.	.	.	.	.	.	.	.
=54	=54	=54	=54	=54	=54	=54	=54	=54	=54	=54	=54	=54	=54
1CC#X 1C#X	8g/L 8b-	2.C#X/	-mie-	.	2.en\	-mie-	.	2.g/	-mie-	.	2.b-\	-mie-	.
.	(8en/	.	.	.	.	.	.	.	.	.	.	.	.
.	8g/ 8b-	.	.	.	.	.	.	.	.	.	.	.	.
.	8e/J	.	.	.	.	.	.	.	.	.	.	.	.
.	8g/L 8b-	.	.	.	.	.	.	.	.	.	.	.	.
.	8e/	.	.	.	.	.	.	.	.	.	.	.	.
.	8g/ 8b-	4C#/	-nia	.	4e\	-nia	.	4g/	-nia	.	4b-\	-nia	.
.	8e/J)	.	.	.	.	.	.	.	.	.	.	.	.
=55	=55	=55	=55	=55	=55	=55	=55	=55	=55	=55	=55	=55	=55
2DD/ 2D	8b-/L 8dd	4D/	u-	.	4d\	u-	.	4b-\	u-	.	4dd\	u-	.
.	(8d/	.	.	.	.	.	.	.	.	.	.	.	.
.	8a/ 8cc	4D/	-śmie-	.	4d\	-śmie-	.	4a/	-śmie-	.	4cc\	-śmie-	.
.	8d/J	.	.	.	.	.	.	.	.	.	.	.	.
2DD/ 2D	8g/L 8b-	4D/	-rza-	.	4d\	-rza-	.	4g/	-rza-	.	4b-\	-rza-	.
.	8d/	.	.	.	.	.	.	.	.	.	.	.	.
.	8f#X/) 8a	4D/	-iąc	.	8d\L	-iąc	.	4f#X/	-iąc	.	4a/	-iąc	.
.	8d/J	.	.	.	8c\J	.	.	.	.	.	.	.	.
=56	=56	=56	=56	=56	=56	=56	=56	=56	=56	=56	=56	=56	=56
1GG 1G	8B-/L 8g	2G\	woy-	.	2B-\	woy-	.	2g/	woy-	.	2g/	woy-	.
.	(8d/	.	.	.	.	.	.	.	.	.	.	.	.
.	8B-/	.	.	.	.	.	.	.	.	.	.	.	.
.	8d/J	.	.	.	.	.	.	.	.	.	.	.	.
.	8B-/L 8g	4G\	-nę	.	4B-\	-nę	.	4g/	-nę	.	4g/	-nę	.
.	8d/	.	.	.	.	.	.	.	.	.	.	.	.
.	8B-/)	4r	.	.	4r	.	.	4r	.	.	4r	.	.
.	8d/J	.	.	.	.	.	.	.	.	.	.	.	.
=57	=57	=57	=57	=57	=57	=57	=57	=57	=57	=57	=57	=57	=57
1FF 1F	8c/L 8e- 8a	1r	.	.	1r	.	.	1r	.	.	1r	.	.
.	(8f/	.	.	.	.	.	.	.	.	.	.	.	.
.	8c/	.	.	.	.	.	.	.	.	.	.	.	.
.	8f/J	.	.	.	.	.	.	.	.	.	.	.	.
.	8c/L 8e- 8a	.	.	.	.	.	.	.	.	.	.	.	.
.	8f/	.	.	.	.	.	.	.	.	.	.	.	.
.	8c/)	.	.	.	.	.	.	.	.	.	.	.	.
.	8f/J	.	.	.	.	.	.	.	.	.	.	.	.
=58	=58	=58	=58	=58	=58	=58	=58	=58	=58	=58	=58	=58	=58
2.BB-\ 2.B-	8d/L 8b-	2.B-\	Lać	.	2.d\	Lać	.	2.f/	Lać	.	2.b-\	Lać	.
.	(8f/	.	.	.	.	.	.	.	.	.	.	.	.
.	8d/	.	.	.	.	.	.	.	.	.	.	.	.
.	8f/J	.	.	.	.	.	.	.	.	.	.	.	.
.	8d/L 8b-	.	.	.	.	.	.	.	.	.	.	.	.
.	8f/	.	.	.	.	.	.	.	.	.	.	.	.
4FF/ 4F	8a/) 8cc	4F\	Nie-	.	4A\	Nie-	.	4f/	Nie-	.	4cc\	Nie-	.
.	8f/J	.	.	.	.	.	.	.	.	.	.	.	.
=59	=59	=59	=59	=59	=59	=59	=59	=59	=59	=59	=59	=59	=59
2.BBB-/ 2.BB-	8f\L 8b- 8dd	2BB-/	-bie-	.	2B-\	-bie-	.	2f/	-bie-	.	2dd\	-bie-	.
.	(8b-\	.	.	.	.	.	.	.	.	.	.	.	.
.	8f\	.	.	.	.	.	.	.	.	.	.	.	.
.	8b-\J	.	.	.	.	.	.	.	.	.	.	.	.
.	8f\L 8dd	4BB-/	-skie	.	4d\	-skie	.	4f/	-skie	.	4b-\	-skie	.
.	8b-\	.	.	.	.	.	.	.	.	.	.	.	.
4r	8ff\	4BB-/	po	.	4B-\	po	.	4f/	po	.	4dd\	po-	.
.	8dd\J)	.	.	.	.	.	.	.	.	.	.	.	.
=60	=60	=60	=60	=60	=60	=60	=60	=60	=60	=60	=60	=60	=60
!!LO:PB:g=original
2EE-/ 2E-	8g\L 8ee-	(2E-\	cie-	.	1B-	cie-	.	1g	cie-	.	1ee-	cie-	.
.	(8b-\	.	.	.	.	.	.	.	.	.	.	.	.
.	8g\	.	.	.	.	.	.	.	.	.	.	.	.
.	8b-\J	.	.	.	.	.	.	.	.	.	.	.	.
4GG/ 4G	8g\L 8ee-	4G\	.	.	.	.	.	.	.	.	.	.	.
.	8b-\	.	.	.	.	.	.	.	.	.	.	.	.
4EE-/ 4E-	8ee-\) 8gg	4E-\)	.	.	.	.	.	.	.	.	.	.	.
.	8b-\J	.	.	.	.	.	.	.	.	.	.	.	.
=61	=61	=61	=61	=61	=61	=61	=61	=61	=61	=61	=61	=61	=61
2.BB-\ 2.B-	8dd\L 8ff	2.B-\	-chy	.	2.B-\	-chy	.	2.f/	-chy	.	2.dd\	-chy	.
.	(8b-\	.	.	.	.	.	.	.	.	.	.	.	.
.	8dd\	.	.	.	.	.	.	.	.	.	.	.	.
.	8b-\J	.	.	.	.	.	.	.	.	.	.	.	.
.	8dd\L 8ff	.	.	.	.	.	.	.	.	.	.	.	.
.	8b-\	.	.	.	.	.	.	.	.	.	.	.	.
4r	8dd\)	4r	.	.	4r	.	.	4r	.	.	4r	.	.
.	8b-\J	.	.	.	.	.	.	.	.	.	.	.	.
=62	=62	=62	=62	=62	=62	=62	=62	=62	=62	=62	=62	=62	=62
4GG/ 4G	4e-\ 4b- 4ee-	4G\	w Ser-	.	4B-\	w Ser-	.	4g/	w Ser-	.	4ee-\	w Ser-	.
4FF/ 4F	4f\ 4b- 4dd	4F\	-ca	.	4B-\	-ca	.	4b-/	-ca	.	4dd\	-ca	.
4EE-/ 4E-	4f\ 4a 4cc	4E-\	bo-	.	4A\	bo-	.	4f/	bo-	.	4cc\	bo-	.
4DD/ 4D	4f/ 4b-	4D\	-go-	.	4B-\	-go-	.	4f/	-go-	.	4b-\	-go-	.
=63	=63	=63	=63	=63	=63	=63	=63	=63	=63	=63	=63	=63	=63
4CC/ 4C	4e-/ 4f 4a	4C/	-boy-	.	4e-\	-boy-	.	4f/	-boy-	.	4a/	-boy-	.
4BBB-/ 4BB-	4d/ 4f 4b-	4BB-/	-ne	.	4d\	-ne	.	4f/	-ne	.	4b-/	-ne	.
4AAA/ 4AA	4c/ 4f 4cc	4AA/	bo-	.	4c\	bo-	.	4f/	bo-	.	4cc\	bo-	.
4BBB-/ 4BB-	4f/ 4b- 4dd	4BB-/	-go-	.	4B-\	-go-	.	4f/	-go-	.	4dd\	-go-	.
=64	=64	=64	=64	=64	=64	=64	=64	=64	=64	=64	=64	=64	=64
2.FF/ 2.F	8a\L 8cc	2F\	-boy-	.	(4.A\	-boy-	.	2f/	-boy-	.	(4.cc\	-boy-	.
.	8f\	.	.	.	.	.	.	.	.	.	.	.	.
.	(8a\	.	.	.	.	.	.	.	.	.	.	.	.
.	8cc\J	.	.	.	8c\)	.	.	.	.	.	8a/)	.	.
.	8a\L 8cc 8ff	4F\	-ne	.	4A\	-ne	.	4f/	-ne	.	4f/	-ne	.
.	8f\	.	.	.	.	.	.	.	.	.	.	.	.
4r	8a\	4F\	Przyim	.	4A\	Przyim	.	4f/	Przyim	.	4cc\	Przyim	.
.	8cc\J)	.	.	.	.	.	.	.	.	.	.	.	.
=65	=65	=65	=65	=65	=65	=65	=65	=65	=65	=65	=65	=65	=65
2.BB-\ 2.B-	8d/L 8b-	2.B-\	cześć	.	2.B-\	cześć	.	2.d/	cześć	.	2.b-\	cześć	.
.	(8f/	.	.	.	.	.	.	.	.	.	.	.	.
.	8d/	.	.	.	.	.	.	.	.	.	.	.	.
.	8f/J	.	.	.	.	.	.	.	.	.	.	.	.
.	8d/L 8b-	.	.	.	.	.	.	.	.	.	.	.	.
.	8f/	.	.	.	.	.	.	.	.	.	.	.	.
4FF/ 4F	8a/) 8cc	4F\	i	.	4A\	i	.	4f/	i	.	4cc\	i	.
.	8f/J	.	.	.	.	.	.	.	.	.	.	.	.
=66	=66	=66	=66	=66	=66	=66	=66	=66	=66	=66	=66	=66	=66
2.BB-\ 2.B-	(8d/L 8b-	2.B-\	dzię-	.	2.B-\	dzię-	.	2.d/	dzię-	.	2.b-\	dzię-	.
.	8f/	.	.	.	.	.	.	.	.	.	.	.	.
.	8d/	.	.	.	.	.	.	.	.	.	.	.	.
.	8f/J	.	.	.	.	.	.	.	.	.	.	.	.
.	8d/L 8b-	.	.	.	.	.	.	.	.	.	.	.	.
.	8f/	.	.	.	.	.	.	.	.	.	.	.	.
4FF/ 4F	8a/ 8cc)	4F\	-ki	.	4A\	-ki	.	4f/	-ki	.	4cc\	-ki	.
.	8f/J	.	.	.	.	.	.	.	.	.	.	.	.
=67	=67	=67	=67	=67	=67	=67	=67	=67	=67	=67	=67	=67	=67
2.BBB-/ 2.BB-	8b-/L 8dd	2.BB-/	Bo-	.	2B-\	Bo-	.	2f/	Bo-	.	2dd\	Bo-	.
.	(<8f/	.	.	.	.	.	.	.	.	.	.	.	.
.	8b-/ 8dd	.	.	.	.	.	.	.	.	.	.	.	.
.	8f/J	.	.	.	.	.	.	.	.	.	.	.	.
.	8dd\L 8ff	.	.	.	2B-\	-że	.	2f/	-że	.	2dd\	-że	.
.	8b-\	.	.	.	.	.	.	.	.	.	.	.	.
4AA-X\ 4A-X	8dd\) 8ff	4A-X\	-że	.	.	.	.	.	.	.	.	.	.
.	8b-\J	.	.	.	.	.	.	.	.	.	.	.	.
=68	=68	=68	=68	=68	=68	=68	=68	=68	=68	=68	=68	=68	=68
2GG\ 2G	8b-\L 8ee-	2G\	du-	.	2B-\	du-	.	2e-/	du-	.	2ee-\	du-	.
.	(8e-\	.	.	.	.	.	.	.	.	.	.	.	.
.	8b-\ 8ee-	.	.	.	.	.	.	.	.	.	.	.	.
.	8e-\J	.	.	.	.	.	.	.	.	.	.	.	.
4EE-/ 4E-	8g\L 8b- 8ee-	(4E-\	-chu	.	(4B-\	-chu	.	2g/	-chu	.	2ee-\	-chu	.
.	8e-\	.	.	.	.	.	.	.	.	.	.	.	.
4CC/ 4C	8g\) 8b- 8ee-	4C\)	.	.	4c\)	.	.	.	.	.	.	.	.
.	8e-\J	.	.	.	.	.	.	.	.	.	.	.	.
=69	=69	=69	=69	=69	=69	=69	=69	=69	=69	=69	=69	=69	=69
2FF/ 2F	8b-\L 8dd	1F	Swię-	.	2d\	Swię-	.	2b-/	Swię-	.	2dd\	Swię-	.
.	8f\	.	.	.	.	.	.	.	.	.	.	.	.
.	(8b-\ 8dd	.	.	.	.	.	.	.	.	.	.	.	.
.	8f\J	.	.	.	.	.	.	.	.	.	.	.	.
2FF/ 2F	8a\L 8cc	.	.	.	2e-\	.	.	2a/	.	.	2cc\	.	.
.	8f\	.	.	.	.	.	.	.	.	.	.	.	.
.	8a\ 8cc	.	.	.	.	.	.	.	.	.	.	.	.
.	8e-\J) 8f	.	.	.	.	.	.	.	.	.	.	.	.
=70	=70	=70	=70	=70	=70	=70	=70	=70	=70	=70	=70	=70	=70
2.BB-\ 2.B-	8d/L 8b-	2BB-/	-ty	.	2d/	-ty	.	2b-/	-ty	.	2dd\	-ty	.
.	(8f/	.	.	.	.	.	.	.	.	.	.	.	.
.	8d/	.	.	.	.	.	.	.	.	.	.	.	.
.	8f/J	.	.	.	.	.	.	.	.	.	.	.	.
.	8d/L 8b-	4r	.	.	4r	.	.	4r	.	.	4r	.	.
.	8f/	.	.	.	.	.	.	.	.	.	.	.	.
4FF/ 4F	8a/ 8cc	4F\	Przyim	.	4A/	Przyim	.	4f/	Przyim	.	4cc\	Przyim	.
.	8f/J)	.	.	.	.	.	.	.	.	.	.	.	.
=71	=71	=71	=71	=71	=71	=71	=71	=71	=71	=71	=71	=71	=71
2.BB-\ 2.B-	8d/L 8b-	2.B-\	cześć	.	2.B-\	cześć	.	2.d/	cześć	.	2.b-/	cześć	.
.	(8f/	.	.	.	.	.	.	.	.	.	.	.	.
.	8d/	.	.	.	.	.	.	.	.	.	.	.	.
.	8f/J	.	.	.	.	.	.	.	.	.	.	.	.
.	8d/L 8b-	.	.	.	.	.	.	.	.	.	.	.	.
.	8f/	.	.	.	.	.	.	.	.	.	.	.	.
4FF\ 4F	8a/ 8cc	4F\	i	.	4A\	i	.	4f/	i	.	4cc\	i	.
.	8f/J)	.	.	.	.	.	.	.	.	.	.	.	.
=72	=72	=72	=72	=72	=72	=72	=72	=72	=72	=72	=72	=72	=72
!!LO:LB:g=original
2.BB-\ 2.B-	8d/L 8b-	2.B-\	dzię-	.	2.B-\	dzię-	.	2.d/	dzię-	.	2.b-\	dzię-	.
.	(8f/	.	.	.	.	.	.	.	.	.	.	.	.
.	8d/	.	.	.	.	.	.	.	.	.	.	.	.
.	8f/J	.	.	.	.	.	.	.	.	.	.	.	.
.	8d/L 8b-	.	.	.	.	.	.	.	.	.	.	.	.
.	8f/	.	.	.	.	.	.	.	.	.	.	.	.
4FF\ 4F	8a/ 8cc	4F\	-ki	.	4A\	-ki	.	4f/	-ki	.	4cc\	-ki	.
.	8f/J)	.	.	.	.	.	.	.	.	.	.	.	.
=73	=73	=73	=73	=73	=73	=73	=73	=73	=73	=73	=73	=73	=73
2.BB-\ 2.B-	8b-\L 8dd	2.BB-/	Bo-	.	2B-\	Bo-	.	2f/	Bo-	.	2dd\	Bo-	.
.	8f\	.	.	.	.	.	.	.	.	.	.	.	.
.	(8b-\ 8dd	.	.	.	.	.	.	.	.	.	.	.	.
.	8f\J	.	.	.	.	.	.	.	.	.	.	.	.
.	8dd\L 8ff	.	.	.	2B-\	-że	.	2f/	-że	.	2dd\	-że	.
.	8b-\	.	.	.	.	.	.	.	.	.	.	.	.
4AA-X\ 4A-X	8dd\) 8ff	4A-X\	-że	.	.	.	.	.	.	.	.	.	.
.	8b-\J	.	.	.	.	.	.	.	.	.	.	.	.
=74	=74	=74	=74	=74	=74	=74	=74	=74	=74	=74	=74	=74	=74
2GG\ 2G	8b-\L 8ee-	2G\	Du-	.	2B-\	Du-	.	2e-/	Du-	.	2ee-\	Du-	.
.	(8e-\	.	.	.	.	.	.	.	.	.	.	.	.
.	8b-\ 8ee-	.	.	.	.	.	.	.	.	.	.	.	.
.	8e-\J	.	.	.	.	.	.	.	.	.	.	.	.
4FF/ 4E-	8g\L 8b- 8ee-	(4E-\	.	.	(4B-\	-chu	.	2g/	-chu	.	2ee-\	-chu	.
.	8e-\	.	.	.	.	.	.	.	.	.	.	.	.
4CC/ 4C	8g\ 8b- 8ee-	4C\)	-chu	.	4c\)	.	.	.	.	.	.	.	.
.	8e-\J)	.	.	.	.	.	.	.	.	.	.	.	.
=75	=75	=75	=75	=75	=75	=75	=75	=75	=75	=75	=75	=75	=75
2FF/ 2F	(8b-/L 8dd	(2F\	Swię-	.	[1B-	Swię-	.	2f/	Swię-	.	2dd\	Swię-	.
.	8f/	.	.	.	.	.	.	.	.	.	.	.	.
.	8b-/ 8dd	.	.	.	.	.	.	.	.	.	.	.	.
.	8f/J	.	.	.	.	.	.	.	.	.	.	.	.
!	!	!	!	!	!	!	!	!	!	!	!LO:TX:a:t=P:problem=z tego miejsca do końca t.78 pomazane, poskreślane niebieskim atramentem we wszystkich głosach	!	!
2EEn/ 2En	8b-/L 8cc#X	2En\	.	.	.	.	.	(2g/	.	.	(2cc#X\	.	.
.	8g/	.	.	.	.	.	.	.	.	.	.	.	.
.	8b-/ 8cc#	.	.	.	.	.	.	.	.	.	.	.	.
.	8g/J)	.	.	.	.	.	.	.	.	.	.	.	.
=76	=76	=76	=76	=76	=76	=76	=76	=76	=76	=76	=76	=76	=76
1FF [1F	8b-\L 8dd	1F)	.	.	1B-]	.	.	1f)	.	.	1dd)	.	.
.	(8f\	.	.	.	.	.	.	.	.	.	.	.	.
.	8b-\ 8dd	.	.	.	.	.	.	.	.	.	.	.	.
.	8f\J	.	.	.	.	.	.	.	.	.	.	.	.
.	8b-\L 8dd	.	.	.	.	.	.	.	.	.	.	.	.
.	8f\	.	.	.	.	.	.	.	.	.	.	.	.
.	8b-\ 8dd	.	.	.	.	.	.	.	.	.	.	.	.
.	8f\J)	.	.	.	.	.	.	.	.	.	.	.	.
=77	=77	=77	=77	=77	=77	=77	=77	=77	=77	=77	=77	=77	=77
1FF 1F]	8b-/L 8cc	1F	.	.	(2B-\	.	.	2.f/	.	.	1ccn	.	.
.	(8f/	.	.	.	.	.	.	.	.	.	.	.	.
.	8b-/ 8cc	.	.	.	.	.	.	.	.	.	.	.	.
.	8f/J	.	.	.	.	.	.	.	.	.	.	.	.
.	8a/L 8cc	.	.	.	2A\	.	.	.	.	.	.	.	.
.	8f/	.	.	.	.	.	.	.	.	.	.	.	.
.	8a/ 8cc	.	.	.	.	.	.	4e-/	.	.	.	.	.
.	8e-/J) 8f	.	.	.	.	.	.	.	.	.	.	.	.
=78	=78	=78	=78	=78	=78	=78	=78	=78	=78	=78	=78	=78	=78
2.BBB-/ 2.BB-	(8d/L 8b-	2.BB-/	-ty.	.	2.B-\)	-ty.	.	2.d/	-ty.	.	2.b-/	-ty.	.
.	8f/	.	.	.	.	.	.	.	.	.	.	.	.
.	8d/	.	.	.	.	.	.	.	.	.	.	.	.
.	8f/J	.	.	.	.	.	.	.	.	.	.	.	.
.	8d/L 8b-	.	.	.	.	.	.	.	.	.	.	.	.
.	8f/	.	.	.	.	.	.	.	.	.	.	.	.
4r	8dd/	4r	.	.	4r	.	.	4r	.	.	4r	.	.
.	8b-/J)	.	.	.	.	.	.	.	.	.	.	.	.
=79	=79	=79	=79	=79	=79	=79	=79	=79	=79	=79	=79	=79	=79
1FF 1F	8dd\L 8ff	1r	.	.	1r	.	.	1r	.	.	1r	.	.
.	8f\	.	.	.	.	.	.	.	.	.	.	.	.
.	(8cc\ 8ee-	.	.	.	.	.	.	.	.	.	.	.	.
.	8f\J	.	.	.	.	.	.	.	.	.	.	.	.
.	8b-\L 8dd	.	.	.	.	.	.	.	.	.	.	.	.
.	8f\	.	.	.	.	.	.	.	.	.	.	.	.
.	8a\) 8cc	.	.	.	.	.	.	.	.	.	.	.	.
.	8f\J	.	.	.	.	.	.	.	.	.	.	.	.
=80	=80	=80	=80	=80	=80	=80	=80	=80	=80	=80	=80	=80	=80
2.BBB-/ 2.BB-	(8d/L 8b-	1r	.	.	1r	.	.	1r	.	.	1r	.	.
.	8f/	.	.	.	.	.	.	.	.	.	.	.	.
.	8d/	.	.	.	.	.	.	.	.	.	.	.	.
.	8f/J	.	.	.	.	.	.	.	.	.	.	.	.
.	8d/L 8b-	.	.	.	.	.	.	.	.	.	.	.	.
.	8f/	.	.	.	.	.	.	.	.	.	.	.	.
4r	8dd/	.	.	.	.	.	.	.	.	.	.	.	.
.	8b-/J)	.	.	.	.	.	.	.	.	.	.	.	.
=81	=81	=81	=81	=81	=81	=81	=81	=81	=81	=81	=81	=81	=81
1FF (>1F	8dd\L 8ff	1r	.	.	1r	.	.	1r	.	.	1r	.	.
.	8f\	.	.	.	.	.	.	.	.	.	.	.	.
.	(8cc\ 8ee-	.	.	.	.	.	.	.	.	.	.	.	.
.	8f\J	.	.	.	.	.	.	.	.	.	.	.	.
.	8b-\L 8dd	.	.	.	.	.	.	.	.	.	.	.	.
.	8f\	.	.	.	.	.	.	.	.	.	.	.	.
.	8a\ 8cc	.	.	.	.	.	.	.	.	.	.	.	.
.	8f\J)	.	.	.	.	.	.	.	.	.	.	.	.
=82	=82	=82	=82	=82	=82	=82	=82	=82	=82	=82	=82	=82	=82
2BBB-/) 2BB-	8d/L 8b-	1r	.	.	1r	.	.	1r	.	.	1r	.	.
.	(8f/	.	.	.	.	.	.	.	.	.	.	.	.
.	8d/	.	.	.	.	.	.	.	.	.	.	.	.
.	8f/J	.	.	.	.	.	.	.	.	.	.	.	.
4DD/ 4D	8d/L 8b-	.	.	.	.	.	.	.	.	.	.	.	.
.	8f/	.	.	.	.	.	.	.	.	.	.	.	.
4FF/ 4F	8dd/	.	.	.	.	.	.	.	.	.	.	.	.
.	8b-/J)	.	.	.	.	.	.	.	.	.	.	.	.
=83	=83	=83	=83	=83	=83	=83	=83	=83	=83	=83	=83	=83	=83
2BB-\ 2B-	8f\L 8dd	1r	.	.	1r	.	.	1r	.	.	1r	.	.
.	(8b-\	.	.	.	.	.	.	.	.	.	.	.	.
.	8f\	.	.	.	.	.	.	.	.	.	.	.	.
.	8b-\J	.	.	.	.	.	.	.	.	.	.	.	.
4FF/ 4F	8f\L 8dd	.	.	.	.	.	.	.	.	.	.	.	.
.	8b-\	.	.	.	.	.	.	.	.	.	.	.	.
4DD/ 4D	8ff\	.	.	.	.	.	.	.	.	.	.	.	.
.	8dd\J)	.	.	.	.	.	.	.	.	.	.	.	.
=84	=84	=84	=84	=84	=84	=84	=84	=84	=84	=84	=84	=84	=84
2.BBB-/ 2.BB-	2.b-\ 2.dd 2.ff 2.bb-	1r	.	.	1r	.	.	1r	.	.	1r	.	.
4r	4r	.	.	.	.	.	.	.	.	.	.	.	.
==	==	==	==	==	==	==	==	==	==	==	==	==	==
*-	*-	*-	*-	*-	*-	*-	*-	*-	*-	*-	*-	*-	*-
!!!system-decoration: [s1,s2,s3,s4{(s5,s6)}]
!!!RDF**kern: > = above
!!!RDF**kern: < = below
!!!ENC: Andrzej Borzym
!!!END: 2020-03-05
!!!ENC: Marta Lawrence
!!!END: 2020-04-02
